X: 30
T: Maple Sugar
I: Maple Sugar	S-M	D/A	square
C: S-M
C: Ward Allen
M: C|
Z: Transcribed to abc by Mary Lou Knack
R: square
K: D
F2 G2^G2 | "D"A4 A3B| A2G2 F2E2| F2 F4 G2| F4 G2F2| \
"A7"F2E2 E2F2| G4 F2E2| "D"G2F2 F2=F2| F2 F2 G2^G2|
"D"A4 A3B| A2G2 F2E2| F2 F4 G2| F4 G2F2| \
"A7"F2E2 E2F2| G2G2 F2E2| "D"D2d2 A2F2| D2C2 D2E2 | [K: A]
\
"A"E4 E3F| E2C2 E2A2| c4 c3B| A2E2 G2A2| \
"E7"B4 B3c| B2G2 F2G2| "A"A2A2 G2F2| E2C2 D2F2|
"A"E4 E3F| E2C2 E2A2| c4 c3B| A2E2 G2A2| \
"E7"B4 B3c| B2G2 F2G2|1 "A"A4 G4| "A7"=G2 :|2 "A"A8-| A2 |]
% %text 9/1/98

